X: 27546
T: Monaghan, The
R: jig
M: 6/8
K: Edorian
A|:B2E EGE|GFG/A/ BGE|B2E EGE|FDF/G/ AGF|
B2E EGE|GFG ABc|dcB ABG|FDF/G/ AGF:|
|:E2e efg|fed eBG|DF/A/B/c/ dAG|FDF/G/ AGF|
E2e efg|fed edc|dcB ABG|FDF/G/ AGF:|
|:g2e ege|gfg/a/ bge|g2 e ege|fdf/g/ agf|
g2e efe|gfg/a/ bge|dcB ABG|FDF/G/ AGF:|

